build/images/icons/vk.svg

<svg width="32" height="32" viewBox="0 0 32 32" fill="none" xmlns="http://www.w3.org/2000/svg">
<path d="M20.0976 2.6665H11.917C4.44474 2.6665 2.66699 4.44425 2.66699 11.9026V20.0832C2.66699 27.5553 4.43091 29.3332 11.9031 29.3332H20.0837C27.5559 29.3332 29.3337 27.5693 29.3337 20.097V11.9165C29.3337 4.44425 27.5697 2.6665 20.0976 2.6665ZM24.1947 21.6943H22.2503C21.5142 21.6943 21.292 21.097 19.9726 19.7776C18.8197 18.6665 18.3337 18.5276 18.042 18.5276C17.6392 18.5276 17.5281 18.6387 17.5281 19.1943V20.9443C17.5281 21.4165 17.3753 21.6943 16.1392 21.6943C14.9398 21.6137 13.7766 21.2493 12.7455 20.6311C11.7144 20.0129 10.8449 19.1587 10.2087 18.1387C8.69813 16.2586 7.64713 14.0519 7.13925 11.6943C7.13925 11.4026 7.25033 11.1387 7.80591 11.1387H9.75033C10.2503 11.1387 10.4309 11.3609 10.6253 11.8748C11.5697 14.6526 13.1809 17.0693 13.8337 17.0693C14.0837 17.0693 14.1947 16.9582 14.1947 16.3332V13.472C14.1114 12.1665 13.417 12.0553 13.417 11.5832C13.4261 11.4586 13.4835 11.3425 13.5768 11.2595C13.6702 11.1765 13.7922 11.1332 13.917 11.1387H16.9726C17.3892 11.1387 17.5281 11.347 17.5281 11.847V15.7082C17.5281 16.1248 17.7087 16.2637 17.8337 16.2637C18.0837 16.2637 18.2781 16.1248 18.7364 15.6665C19.7213 14.4654 20.5261 13.1273 21.1253 11.6943C21.1865 11.5218 21.3024 11.3742 21.4554 11.2738C21.6084 11.1735 21.7901 11.126 21.9726 11.1387H23.917C24.5003 11.1387 24.6253 11.4303 24.5003 11.847C23.7928 13.4314 22.9175 14.9354 21.8892 16.3332C21.6809 16.6526 21.5976 16.8193 21.8892 17.1943C22.0837 17.4859 22.7642 18.0553 23.2226 18.597C23.8892 19.262 24.4428 20.0314 24.8614 20.8748C25.0281 21.4165 24.7503 21.6943 24.1947 21.6943Z"/>
</svg>

<svg width="32" height="32" fill="none" xmlns="http://www.w3.org/2000/svg"><path d="M20.098 2.667h-8.181c-7.472 0-9.25 1.777-9.25 9.236v8.18c0 7.472 1.764 9.25 9.236 9.25h8.18c7.473 0 9.25-1.764 9.25-9.236v-8.18c0-7.473-1.763-9.25-9.235-9.25zm4.097 19.027H22.25c-.736 0-.958-.597-2.277-1.916-1.153-1.111-1.64-1.25-1.931-1.25-.403 0-.514.11-.514.666v1.75c0 .473-.153.75-1.389.75a7.59 7.59 0 01-5.93-3.555 15.501 15.501 0 01-3.07-6.445c0-.291.111-.555.667-.555H9.75c.5 0 .68.222.875.736.945 2.778 2.556 5.194 3.209 5.194.25 0 .36-.11.36-.736v-2.861c-.083-1.306-.777-1.417-.777-1.889a.48.48 0 01.5-.444h3.056c.416 0 .555.208.555.708v3.861c0 .417.18.556.306.556.25 0 .444-.14.902-.598a15.998 15.998 0 002.39-3.972.838.838 0 01.847-.555h1.944c.583 0 .708.291.583.708a24.27 24.27 0 01-2.61 4.486c-.21.32-.292.486 0 .861.194.292.874.861 1.333 1.403a8.649 8.649 0 011.638 2.278c.167.541-.11.82-.666.82z"/></svg>
